svgs/timeplanner.svg

<svg width="192" height="192" viewBox="0 0 192 192" fill="none" xmlns="http://www.w3.org/2000/svg">
<path d="M26 69.5V36.3146C26 33.0009 28.6863 30.3146 32 30.3146H159.685C162.999 30.3146 165.685 33.0009 165.685 36.3146V69.5M26 69.5V164C26 167.314 28.6863 170 32 170H159.685C162.999 170 165.685 167.314 165.685 164V69.5M26 69.5H165.685" stroke="black" stroke-width="12" stroke-linecap="round" stroke-linejoin="round"/>
<path d="M105 114.608V144.392C105 146.385 106.616 148 108.608 148H138.392C140.385 148 142 146.385 142 144.392V114.608C142 112.615 140.385 111 138.392 111H108.608C106.616 111 105 112.615 105 114.608Z" stroke="black" stroke-width="10" stroke-linecap="round" stroke-linejoin="round"/>
<path d="M51 22V48.6067" stroke="black" stroke-width="12" stroke-linecap="round" stroke-linejoin="round"/>
<path d="M139.079 22V48.6067" stroke="black" stroke-width="12" stroke-linecap="round" stroke-linejoin="round"/>
</svg>

<svg width="192" height="192" viewBox="0 0 192 192" fill="none" xmlns="http://www.w3.org/2000/svg"><path d="M26 69.5V36.315a6 6 0 0 1 6-6h127.685a6 6 0 0 1 6 6V69.5M26 69.5V164a6 6 0 0 0 6 6h127.685a6 6 0 0 0 6-6V69.5M26 69.5h139.685" stroke="#000" stroke-width="12" stroke-linecap="round" stroke-linejoin="round"/><path d="M105 114.608v29.784a3.608 3.608 0 0 0 3.608 3.608h29.784a3.608 3.608 0 0 0 3.608-3.608v-29.784a3.608 3.608 0 0 0-3.608-3.608h-29.784a3.608 3.608 0 0 0-3.608 3.608Z" stroke="#000" stroke-width="10" stroke-linecap="round" stroke-linejoin="round"/><path d="M51 22v26.607M139.079 22v26.607" stroke="#000" stroke-width="12" stroke-linecap="round" stroke-linejoin="round"/></svg>
